;FLAVOR:UltiGCode
;TIME:6104
;MATERIAL:8432
;MATERIAL2:0
;NOZZLE_DIAMETER:0.4
;Generated with Cura_SteamEngine 2.3.1

;LAYER_COUNT:98
;LAYER:0
M107
G10
G0 F3600 X71.771 Y73.138 Z.3
;TYPE:SKIRT
G11
G1 F1800 X71.539 Y73.383 E0.04049
G1 X71.462 Y73.449 E0.05266
G1 X71.462 Y150.178 E9.26014
G1 X71.694 Y149.933 E9.30063
G1 X71.771 Y149.867 E9.3128
G1 X71.771 Y73.138 E18.52028
G10
G0 F3600 X72.171 Y72.05
G11
G1 F1800 X72.168 Y72.055 E18.52098
G1 X71.687 Y72.655 E18.61326
G1 X71.146 Y73.202 E18.70558
G1 X71.062 Y73.271 E18.71862
G1 X71.062 Y151.266 E28.07802
G1 X71.065 Y151.261 E28.07872
G1 X71.546 Y150.661 E28.171
G1 X72.087 Y150.114 E28.26333
G1 X72.171 Y150.045 E28.27637
G1 X72.171 Y72.05 E37.63577
G0 F3600 X72.189 Y71.291
G1 F1800 X72.185 Y71.298 E37.63674
G1 X71.77 Y71.921 E37.72657
G1 X71.291 Y72.495 E37.81628
G1 X70.754 Y73.016 E37.90606
G1 X70.662 Y73.088 E37.92008
G1 X70.662 Y151.683 E47.35148
G1 X70.925 Y151.902 E47.39255
G1 X71.044 Y152.025 E47.41309
G1 X71.048 Y152.018 E47.41406
G1 X71.463 Y151.395 E47.50388
G1 X71.942 Y150.821 E47.5936
G1 X72.479 Y150.3 E47.68338
G1 X72.571 Y150.228 E47.6974
G1 X72.571 Y71.633 E57.1288
G1 X72.308 Y71.414 E57.16987
G1 X72.189 Y71.291 E57.19041
G0 F3600 X72.096 Y70.612
G1 F1800 X71.787 Y71.185 E57.26853
G1 X71.373 Y71.782 E57.35571
G1 X70.897 Y72.33 E57.44281
G1 X70.363 Y72.823 E57.53003
G1 X70.262 Y72.897 E57.54505
G1 X70.262 Y151.863 E67.02097
G1 X70.76 Y152.296 E67.10016
G1 X71.137 Y152.704 E67.16682
G1 X71.446 Y152.131 E67.24494
G1 X71.86 Y151.534 E67.33212
G1 X72.336 Y150.986 E67.41923
G1 X72.87 Y150.493 E67.50644
G1 X72.971 Y150.419 E67.52147
G1 X72.971 Y71.453 E76.99739
G1 X72.473 Y71.02 E77.07658
G1 X72.096 Y70.612 E77.14324
G0 F3600 X71.995 Y69.828
G1 F1800 X71.733 Y70.453 E77.22456
G1 X71.388 Y71.067 E77.30907
G1 X70.977 Y71.638 E77.3935
G1 X70.503 Y72.159 E77.47802
G1 X69.973 Y72.623 E77.56255
G1 X69.862 Y72.7 E77.57876
G1 X69.862 Y152.068 E87.10292
G1 X70.068 Y152.216 E87.13336
G1 X70.589 Y152.69 E87.21788
G1 X71.053 Y153.22 E87.30241
G1 X71.238 Y153.488 E87.34149
G1 X71.5 Y152.863 E87.42281
G1 X71.845 Y152.249 E87.50733
G1 X72.256 Y151.678 E87.59175
G1 X72.73 Y151.157 E87.67628
G1 X73.26 Y150.693 E87.7608
G1 X73.371 Y150.616 E87.77702
G1 X73.371 Y71.248 E97.30118
G1 X73.165 Y71.1 E97.33161
G1 X72.644 Y70.626 E97.41614
G1 X72.18 Y70.096 E97.50067
G1 X71.995 Y69.828 E97.53974
G10
G0 F3600 X71.854 Y68.797
G11
G1 F1800 X71.803 Y69.082 E97.57449
G1 X71.606 Y69.734 E97.65622
G1 X71.334 Y70.358 E97.73791
G1 X70.99 Y70.946 E97.81965
G1 X70.58 Y71.49 E97.9014
G1 X70.109 Y71.981 E97.98304
G1 X69.584 Y72.415 E98.06478
G1 X69.462 Y72.494 E98.08222
G1 X69.462 Y152.268 E107.6551
G1 X69.92 Y152.613 E107.72391
G1 X70.411 Y153.084 E107.80556
G1 X70.845 Y153.609 E107.8873
G1 X71.214 Y154.181 E107.96898
G1 X71.379 Y154.519 E108.01412
G1 X71.43 Y154.234 E108.04886
G1 X71.627 Y153.582 E108.13059
G1 X71.899 Y152.958 E108.21228
G1 X72.243 Y152.37 E108.29403
G1 X72.653 Y151.826 E108.37577
G1 X73.124 Y151.335 E108.45742
G1 X73.649 Y150.901 E108.53916
G1 X73.771 Y150.822 E108.5566
G1 X73.771 Y71.048 E118.12948
G1 X73.313 Y70.703 E118.19829
G1 X72.822 Y70.232 E118.27993
G1 X72.388 Y69.707 E118.36167
G1 X72.019 Y69.135 E118.44335
G1 X71.854 Y68.797 E118.48849
G0 F3600 X71.403 Y69.034
G1 F1800 X71.206 Y69.661 E118.56736
G1 X70.934 Y70.259 E118.64619
G1 X70.592 Y70.82 E118.72503
G1 X70.184 Y71.335 E118.80388
G1 X69.717 Y71.797 E118.88271
G1 X69.197 Y72.198 E118.96151
G1 X69.062 Y72.278 E118.98034
G1 X69.062 Y152.486 E128.6053
G1 X69.25 Y152.601 E128.63174
G1 X69.765 Y153.009 E128.71059
G1 X70.227 Y153.476 E128.78942
G1 X70.628 Y153.996 E128.86821
G1 X70.964 Y154.56 E128.94699
G1 X71.228 Y155.162 E129.02588
G1 X71.418 Y155.791 E129.10472
G1 X71.529 Y156.438 E129.1835
G1 X71.562 Y157.031 E129.25477
G1 X71.562 Y159.031 E129.49477
G1 X71.522 Y159.687 E129.57363
G1 X71.403 Y160.333 E129.65246
G1 X71.206 Y160.96 E129.73132
G1 X70.934 Y161.558 E129.81016
G1 X70.592 Y162.119 E129.889
G1 X70.184 Y162.634 E129.96785
G1 X69.717 Y163.096 E130.04668
G1 X69.197 Y163.497 E130.12547
G1 X68.633 Y163.833 E130.20425
G1 X68.031 Y164.097 E130.28314
G1 X67.402 Y164.287 E130.36198
G1 X66.755 Y164.398 E130.44076
G1 X66.162 Y164.431 E130.51203
G1 X56.162 Y164.431 E131.71203
G1 X55.506 Y164.391 E131.7909
G1 X54.86 Y164.272 E131.86972
G1 X54.233 Y164.075 E131.94859
G1 X53.635 Y163.803 E132.02742
G1 X53.074 Y163.461 E132.10626
G1 X52.559 Y163.053 E132.18511
G1 X52.097 Y162.586 E132.26394
G1 X51.696 Y162.066 E132.34274
G1 X51.36 Y161.502 E132.42152
G1 X51.096 Y160.9 E132.5004
G1 X50.906 Y160.271 E132.57925
G1 X50.795 Y159.624 E132.65802
G1 X50.762 Y159.031 E132.72929
G1 X50.762 Y157.031 E132.96929
G1 X50.802 Y156.375 E133.04816
G1 X50.921 Y155.729 E133.12698
G1 X51.118 Y155.102 E133.20585
G1 X51.39 Y154.504 E133.28468
G1 X51.732 Y153.943 E133.36352
G1 X52.14 Y153.428 E133.44237
G1 X52.607 Y152.966 E133.5212
G1 X53.127 Y152.565 E133.6
G1 X53.262 Y152.485 E133.61883
G1 X53.262 Y72.277 E143.24379
G1 X53.074 Y72.162 E143.27023
G1 X52.559 Y71.754 E143.34908
G1 X52.097 Y71.287 E143.42791
G1 X51.696 Y70.767 E143.50671
G1 X51.36 Y70.203 E143.58549
G1 X51.096 Y69.601 E143.66437
G1 X50.906 Y68.972 E143.74321
G1 X50.795 Y68.325 E143.82199
G1 X50.762 Y67.732 E143.89326
G1 X50.762 Y65.732 E144.13326
G1 X50.802 Y65.076 E144.21213
G1 X50.921 Y64.43 E144.29095
G1 X51.118 Y63.803 E144.36982
G1 X51.39 Y63.205 E144.44865
G1 X51.732 Y62.644 E144.52749
G1 X52.14 Y62.129 E144.60634
G1 X52.607 Y61.667 E144.68517
G1 X53.127 Y61.266 E144.76397
G1 X53.691 Y60.93 E144.84275
G1 X54.293 Y60.666 E144.92163
G1 X54.922 Y60.476 E145.00048
G1 X55.569 Y60.365 E145.07925
G1 X56.162 Y60.332 E145.15052
G1 X66.162 Y60.332 E146.35052
G1 X66.818 Y60.372 E146.42939
G1 X67.464 Y60.491 E146.50821
G1 X68.091 Y60.688 E146.58708
G1 X68.689 Y60.96 E146.66591
G1 X69.25 Y61.302 E146.74475
G1 X69.765 Y61.71 E146.8236
G1 X70.227 Y62.177 E146.90243
G1 X70.628 Y62.697 E146.98123
G1 X70.964 Y63.261 E147.06001
G1 X71.228 Y63.863 E147.13889
G1 X71.418 Y64.492 E147.21774
G1 X71.529 Y65.139 E147.29651
G1 X71.562 Y65.732 E147.36778
G1 X71.562 Y67.732 E147.60778
G1 X71.522 Y68.388 E147.68665
G1 X71.403 Y69.034 E147.76547
G0 F3600 X71.003 Y68.984
G1 F1800 X70.806 Y69.584 E147.84125
G1 X70.535 Y70.156 E147.91721
G1 X70.195 Y70.688 E147.99297
G1 X69.789 Y71.173 E148.06887
G1 X69.326 Y71.603 E148.1447
G1 X68.812 Y71.972 E148.22062
G1 X68.662 Y72.053 E148.24108
G1 X68.662 Y152.707 E157.91956
G1 X69.118 Y152.998 E157.98447
G1 X69.603 Y153.404 E158.06038
G1 X70.033 Y153.867 E158.1362
G1 X70.402 Y154.381 E158.21213
G1 X70.702 Y154.937 E158.28794
G1 X70.93 Y155.526 E158.36373
G1 X71.082 Y156.14 E158.43964
G1 X71.162 Y157.031 E158.54699
G1 X71.162 Y159.031 E158.78699
G1 X71.122 Y159.662 E158.86286
G1 X71.003 Y160.283 E158.93873
G1 X70.806 Y160.883 E159.01452
G1 X70.535 Y161.455 E159.09047
G1 X70.195 Y161.987 E159.16623
G1 X69.789 Y162.472 E159.24213
G1 X69.326 Y162.902 E159.31796
G1 X68.812 Y163.271 E159.39389
G1 X68.256 Y163.571 E159.4697
G1 X67.667 Y163.799 E159.54549
G1 X67.053 Y163.951 E159.6214
G1 X66.162 Y164.031 E159.72875
G1 X56.162 Y164.031 E160.92875
G1 X55.531 Y163.991 E161.00462
G1 X54.91 Y163.872 E161.08049
G1 X54.31 Y163.675 E161.15628
G1 X53.738 Y163.404 E161.23223
G1 X53.206 Y163.064 E161.30799
G1 X52.721 Y162.658 E161.38389
G1 X52.291 Y162.195 E161.45972
G1 X51.922 Y161.681 E161.53565
G1 X51.622 Y161.125 E161.61146
G1 X51.394 Y160.536 E161.68725
G1 X51.242 Y159.922 E161.76315
G1 X51.162 Y159.031 E161.87051
G1 X51.162 Y157.031 E162.11051
G1 X51.202 Y156.4 E162.18638
G1 X51.321 Y155.779 E162.26225
G1 X51.518 Y155.179 E162.33803
G1 X51.789 Y154.607 E162.41399
G1 X52.129 Y154.075 E162.48975
G1 X52.535 Y153.59 E162.56565
G1 X52.998 Y153.16 E162.64148
G1 X53.512 Y152.791 E162.71741
G1 X53.662 Y152.71 E162.73786
G1 X53.662 Y72.056 E172.41634
G1 X53.206 Y71.765 E172.48126
G1 X52.721 Y71.359 E172.55716
G1 X52.291 Y70.896 E172.63298
G1 X51.922 Y70.382 E172.70891
G1 X51.622 Y69.826 E172.78472
G1 X51.394 Y69.237 E172.86051
G1 X51.242 Y68.623 E172.93642
G1 X51.162 Y67.732 E173.04377
G1 X51.162 Y65.732 E173.28377
G1 X51.202 Y65.101 E173.35964
G1 X51.321 Y64.48 E173.43552
G1 X51.518 Y63.88 E173.5113
G1 X51.789 Y63.308 E173.58725
G1 X52.129 Y62.776 E173.66302
G1 X52.535 Y62.291 E173.73892
G1 X52.998 Y61.861 E173.81474
G1 X53.512 Y61.492 E173.89067
G1 X54.068 Y61.192 E173.96648
G1 X54.657 Y60.964 E174.04227
G1 X55.271 Y60.812 E174.11818
G1 X56.162 Y60.732 E174.22553
G1 X66.162 Y60.732 E175.42553
G1 X66.793 Y60.772 E175.5014
G1 X67.414 Y60.891 E175.57728
G1 X68.014 Y61.088 E175.65306
G1 X68.586 Y61.359 E175.72901
G1 X69.118 Y61.699 E175.80477
G1 X69.603 Y62.105 E175.88068
G1 X70.033 Y62.568 E175.9565
G1 X70.402 Y63.082 E176.03243
G1 X70.702 Y63.638 E176.10824
G1 X70.93 Y64.227 E176.18403
G1 X71.082 Y64.841 E176.25994
G1 X71.162 Y65.732 E176.36729
G1 X71.162 Y67.732 E176.60729
G1 X71.122 Y68.363 E176.68316
G1 X71.003 Y68.984 E176.75903
G0 F3600 X70.603 Y68.931
G1 F1800 X70.407 Y69.505 E176.83182
G1 X70.136 Y70.048 E176.90464
G1 X69.797 Y70.551 E176.97743
G1 X69.395 Y71.004 E177.05011
G1 X68.937 Y71.401 E177.12284
G1 X68.43 Y71.734 E177.19563
G1 X68.262 Y71.815 E177.21801
G1 X68.262 Y152.949 E186.95409
G1 X68.478 Y153.057 E186.98307
G1 X68.981 Y153.396 E187.05586
G1 X69.434 Y153.798 E187.12854
G1 X69.831 Y154.256 E187.20127
G1 X70.164 Y154.763 E187.27406
G1 X70.428 Y155.309 E187.34684
G1 X70.617 Y155.885 E187.41959
G1 X70.729 Y156.481 E187.49236
G1 X70.762 Y157.031 E187.55848
G1 X70.762 Y159.031 E187.79848
G1 X70.722 Y159.636 E187.87124
G1 X70.603 Y160.23 E187.94393
G1 X70.407 Y160.804 E188.01672
G1 X70.136 Y161.347 E188.08954
G1 X69.797 Y161.85 E188.16233
G1 X69.395 Y162.303 E188.23501
G1 X68.937 Y162.7 E188.30774
G1 X68.43 Y163.033 E188.38053
G1 X67.884 Y163.297 E188.45331
G1 X67.308 Y163.486 E188.52605
G1 X66.712 Y163.598 E188.59883
G1 X66.162 Y163.631 E188.66494
G1 X56.162 Y163.631 E189.86494
G1 X55.557 Y163.591 E189.9377
G1 X54.963 Y163.472 E190.0104
G1 X54.389 Y163.276 E190.08318
G1 X53.846 Y163.005 E190.15601
G1 X53.343 Y162.666 E190.2288
G1 X52.89 Y162.264 E190.30148
G1 X52.493 Y161.806 E190.37421
G1 X52.16 Y161.299 E190.447
G1 X51.896 Y160.753 E190.51978
G1 X51.707 Y160.177 E190.59252
G1 X51.595 Y159.581 E190.66529
G1 X51.562 Y159.031 E190.73141
G1 X51.562 Y157.031 E190.97141
G1 X51.602 Y156.426 E191.04417
G1 X51.721 Y155.832 E191.11687
G1 X51.917 Y155.258 E191.18965
G1 X52.188 Y154.715 E191.26248
G1 X52.527 Y154.212 E191.33526
G1 X52.929 Y153.759 E191.40794
G1 X53.387 Y153.362 E191.48068
G1 X53.894 Y153.029 E191.55347
G1 X54.062 Y152.948 E191.57585
G1 X54.062 Y71.814 E201.31193
G1 X53.846 Y71.706 E201.34091
G1 X53.343 Y71.367 E201.41369
G1 X52.89 Y70.965 E201.48637
G1 X52.493 Y70.507 E201.55911
G1 X52.16 Y70 E201.6319
G1 X51.896 Y69.454 E201.70467
G1 X51.707 Y68.878 E201.77742
G1 X51.595 Y68.282 E201.85019
G1 X51.562 Y67.732 E201.91631
G1 X51.562 Y65.732 E202.15631
G1 X51.602 Y65.127 E202.22907
G1 X51.721 Y64.533 E202.30176
G1 X51.917 Y63.959 E202.37455
G1 X52.188 Y63.416 E202.44737
G1 X52.527 Y62.913 E202.52016
G1 X52.929 Y62.46 E202.59284
G1 X53.387 Y62.063 E202.66557
G1 X53.894 Y61.73 E202.73836
G1 X54.44 Y61.466 E202.81114
G1 X55.016 Y61.277 E202.88389
G1 X55.612 Y61.165 E202.95666
G1 X56.162 Y61.132 E203.02278
G1 X66.162 Y61.132 E204.22278
G1 X66.767 Y61.172 E204.29553
G1 X67.361 Y61.291 E204.36823
G1 X67.935 Y61.487 E204.44102
G1 X68.478 Y61.758 E204.51384
G1 X68.981 Y62.097 E204.58663
G1 X69.434 Y62.499 E204.65931
G1 X69.831 Y62.957 E204.73204
G1 X70.164 Y63.464 E204.80483
G1 X70.428 Y64.01 E204.87761
G1 X70.617 Y64.586 E204.95035
G1 X70.729 Y65.182 E205.02312
G1 X70.762 Y65.732 E205.08924
G1 X70.762 Y67.732 E205.32924
G1 X70.722 Y68.337 E205.402
G1 X70.603 Y68.931 E205.4747
G0 F3600 X70.203 Y68.877
G1 F1800 X70.007 Y69.422 E205.5442
G1 X69.738 Y69.935 E205.61371
G1 X69.401 Y70.406 E205.68321
G1 X69.002 Y70.826 E205.75272
G1 X68.549 Y71.188 E205.82231
G1 X68.051 Y71.483 E205.89177
G1 X67.862 Y71.563 E205.91639
G1 X67.862 Y153.191 E215.71175
G1 X68.365 Y153.455 E215.77992
G1 X68.836 Y153.792 E215.84942
G1 X69.256 Y154.191 E215.91894
G1 X69.618 Y154.644 E215.98852
G1 X69.913 Y155.142 E216.05798
G1 X70.138 Y155.676 E216.12752
G1 X70.286 Y156.236 E216.19702
G1 X70.362 Y157.031 E216.29286
G1 X70.362 Y159.031 E216.53286
G1 X70.322 Y159.609 E216.60239
G1 X70.203 Y160.176 E216.67191
G1 X70.007 Y160.721 E216.74141
G1 X69.738 Y161.234 E216.81092
G1 X69.401 Y161.705 E216.88042
G1 X69.002 Y162.125 E216.94993
G1 X68.549 Y162.487 E217.01952
G1 X68.051 Y162.782 E217.08898
G1 X67.517 Y163.007 E217.15851
G1 X66.957 Y163.155 E217.22802
G1 X66.162 Y163.231 E217.32385
G1 X56.162 Y163.231 E218.52385
G1 X55.584 Y163.191 E218.59338
G1 X55.017 Y163.072 E218.6629
G1 X54.472 Y162.876 E218.7324
G1 X53.959 Y162.607 E218.80191
G1 X53.488 Y162.27 E218.87141
G1 X53.068 Y161.871 E218.94093
G1 X52.706 Y161.418 E219.01051
G1 X52.411 Y160.92 E219.07997
G1 X52.186 Y160.386 E219.14951
G1 X52.038 Y159.826 E219.21901
G1 X51.962 Y159.031 E219.31485
G1 X51.962 Y157.031 E219.55485
G1 X52.002 Y156.453 E219.62437
G1 X52.121 Y155.886 E219.6939
G1 X52.317 Y155.341 E219.7634
G1 X52.586 Y154.828 E219.83291
G1 X52.923 Y154.357 E219.9024
G1 X53.322 Y153.937 E219.97192
G1 X53.775 Y153.575 E220.04151
G1 X54.273 Y153.28 E220.11097
G1 X54.462 Y153.2 E220.13559
G1 X54.462 Y71.572 E229.93095
G1 X53.959 Y71.308 E229.99912
G1 X53.488 Y70.971 E230.06862
G1 X53.068 Y70.572 E230.13814
G1 X52.706 Y70.119 E230.20772
G1 X52.411 Y69.621 E230.27718
G1 X52.186 Y69.087 E230.34672
G1 X52.038 Y68.527 E230.41622
G1 X51.962 Y67.732 E230.51206
G1 X51.962 Y65.732 E230.75206
G1 X52.002 Y65.154 E230.82158
G1 X52.121 Y64.587 E230.89111
G1 X52.317 Y64.042 E230.96061
G1 X52.586 Y63.529 E231.03012
G1 X52.923 Y63.058 E231.09961
G1 X53.322 Y62.638 E231.16913
G1 X53.775 Y62.276 E231.23872
G1 X54.273 Y61.981 E231.30817
G1 X54.807 Y61.756 E231.37771
G1 X55.367 Y61.608 E231.44722
G1 X56.162 Y61.532 E231.54305
G1 X66.162 Y61.532 E232.74305
G1 X66.74 Y61.572 E232.81258
G1 X67.307 Y61.691 E232.8821
G1 X67.852 Y61.887 E232.9516
G1 X68.365 Y62.156 E233.02111
G1 X68.836 Y62.493 E233.09061
G1 X69.256 Y62.892 E233.16013
G1 X69.618 Y63.345 E233.22971
G1 X69.913 Y63.843 E233.29917
G1 X70.138 Y64.377 E233.3687
G1 X70.286 Y64.937 E233.43821
G1 X70.362 Y65.732 E233.53405
G1 X70.362 Y67.732 E233.77405
G1 X70.322 Y68.31 E233.84357
G1 X70.203 Y68.877 E233.9131
G0 F3600 X69.803 Y68.82
G1 F1800 X69.607 Y69.335 E233.97922
G1 X69.339 Y69.816 E234.04529
G1 X69.005 Y70.254 E234.11139
G1 X68.61 Y70.638 E234.1775
G1 X68.164 Y70.962 E234.24365
G1 X67.676 Y71.217 E234.30972
G1 X67.462 Y71.292 E234.33694
G1 X67.462 Y153.471 E244.19842
G1 X67.765 Y153.586 E244.23731
G1 X68.246 Y153.854 E244.30338
G1 X68.684 Y154.188 E244.36948
G1 X69.068 Y154.583 E244.43559
G1 X69.392 Y155.029 E244.50174
G1 X69.647 Y155.517 E244.56781
G1 X69.83 Y156.037 E244.63396
G1 X69.935 Y156.578 E244.70009
G1 X69.962 Y157.031 E244.75455
G1 X69.962 Y159.031 E244.99455
G1 X69.922 Y159.581 E245.06072
G1 X69.803 Y160.119 E245.12684
G1 X69.607 Y160.634 E245.19297
G1 X69.339 Y161.115 E245.25904
G1 X69.005 Y161.553 E245.32514
G1 X68.61 Y161.937 E245.39125
G1 X68.164 Y162.261 E245.4574
G1 X67.676 Y162.516 E245.52347
G1 X67.156 Y162.699 E245.58962
G1 X66.615 Y162.804 E245.65576
G1 X66.162 Y162.831 E245.71021
G1 X56.162 Y162.831 E246.91021
G1 X55.612 Y162.791 E246.97639
G1 X55.074 Y162.672 E247.04251
G1 X54.559 Y162.476 E247.10863
G1 X54.078 Y162.208 E247.17471
G1 X53.64 Y161.874 E247.2408
G1 X53.256 Y161.479 E247.30691
G1 X52.932 Y161.033 E247.37306
G1 X52.677 Y160.545 E247.43914
G1 X52.494 Y160.025 E247.50529
G1 X52.389 Y159.484 E247.57142
G1 X52.362 Y159.031 E247.62587
G1 X52.362 Y157.031 E247.86587
G1 X52.402 Y156.481 E247.93205
G1 X52.521 Y155.943 E247.99817
G1 X52.717 Y155.428 E248.06429
G1 X52.985 Y154.947 E248.13037
G1 X53.319 Y154.509 E248.19647
G1 X53.714 Y154.125 E248.26257
G1 X54.16 Y153.801 E248.32873
G1 X54.648 Y153.546 E248.3948
G1 X54.862 Y153.471 E248.42201
G1 X54.862 Y71.292 E258.28349
