;FLAVOR:UltiGCode
;TIME:18041
;MATERIAL:23951
;MATERIAL2:0
;NOZZLE_DIAMETER:0.4
;Generated with Cura_SteamEngine 2.4.0

;LAYER_COUNT:167
;LAYER:0
M107
G10
G0 F3600 X70.772 Y14.93 Z0.3
;TYPE:SKIRT
G11
G1 F1800 X70.97 Y14.165 E0.09482
G1 X71.244 Y13.425 E0.18952
G1 X71.592 Y12.716 E0.28429
G1 X72.01 Y12.045 E0.37916
G1 X72.493 Y11.421 E0.47385
G1 X73.036 Y10.848 E0.56858
G1 X73.635 Y10.333 E0.66337
G1 X74.283 Y9.882 E0.75811
G1 X74.974 Y9.498 E0.85298
G1 X75.699 Y9.186 E0.94769
G1 X76.452 Y8.949 E1.04242
G1 X77.226 Y8.79 E1.13724
G1 X78.011 Y8.709 E1.23194
G1 X78.413 Y8.699 E1.2802
G1 X138.336 Y8.699 E8.47096
G1 X139.125 Y8.739 E8.56576
G1 X139.905 Y8.858 E8.66044
G1 X140.67 Y9.056 E8.75527
G1 X141.41 Y9.33 E8.84996
G1 X142.119 Y9.678 E8.94473
G1 X142.79 Y10.096 E9.0396
G1 X143.414 Y10.579 E9.13429
G1 X143.987 Y11.122 E9.22902
G1 X144.502 Y11.721 E9.32381
G1 X144.953 Y12.369 E9.41855
G1 X145.337 Y13.06 E9.51342
G1 X145.649 Y13.785 E9.60813
G1 X145.886 Y14.538 E9.70286
G1 X146.045 Y15.312 E9.79768
G1 X146.126 Y16.097 E9.89238
G1 X146.136 Y16.499 E9.94064
G1 X146.136 Y24.918 E10.95092
G1 X146.155 Y24.921 E10.95322
G1 X146.92 Y25.119 E11.04805
G1 X147.66 Y25.393 E11.14274
G1 X148.369 Y25.741 E11.23752
G1 X149.04 Y26.159 E11.33238
G1 X149.664 Y26.642 E11.42707
G1 X150.237 Y27.185 E11.5218
G1 X150.752 Y27.784 E11.6166
G1 X151.203 Y28.432 E11.71134
G1 X151.587 Y29.123 E11.8062
G1 X151.899 Y29.848 E11.90091
G1 X152.136 Y30.601 E11.99564
G1 X152.295 Y31.375 E12.09046
G1 X152.376 Y32.16 E12.18516
G1 X152.386 Y32.562 E12.23342
G1 X152.386 Y73.562 E17.15342
G1 X152.346 Y74.351 E17.24822
G1 X152.227 Y75.131 E17.3429
G1 X152.029 Y75.896 E17.43773
G1 X151.755 Y76.636 E17.53242
G1 X151.407 Y77.345 E17.6272
G1 X150.989 Y78.016 E17.72206
G1 X150.506 Y78.64 E17.81675
G1 X149.963 Y79.213 E17.91148
G1 X149.364 Y79.728 E18.00628
G1 X148.716 Y80.179 E18.10102
G1 X148.025 Y80.563 E18.19588
G1 X147.3 Y80.875 E18.2906
G1 X146.547 Y81.112 E18.38533
G1 X146.136 Y81.196 E18.43566
G1 X146.136 Y183.858 E30.7551
G1 X146.156 Y183.861 E30.75753
G1 X146.921 Y184.059 E30.85236
G1 X147.661 Y184.333 E30.94705
G1 X148.371 Y184.681 E31.04193
G1 X149.041 Y185.098 E31.13663
G1 X149.665 Y185.581 E31.23132
G1 X150.238 Y186.125 E31.32614
G1 X150.752 Y186.724 E31.42085
G1 X151.204 Y187.372 E31.51566
G1 X151.587 Y188.063 E31.61047
G1 X151.899 Y188.788 E31.70518
G1 X152.136 Y189.542 E31.80002
G1 X152.295 Y190.315 E31.89473
G1 X152.376 Y191.101 E31.98955
G1 X152.386 Y191.501 E32.03756
G1 X152.386 Y206.501 E33.83756
G1 X152.346 Y207.29 E33.93236
G1 X152.227 Y208.07 E34.02705
G1 X152.029 Y208.835 E34.12187
G1 X151.755 Y209.575 E34.21656
G1 X151.407 Y210.284 E34.31134
G1 X150.989 Y210.955 E34.4062
G1 X150.506 Y211.579 E34.50089
G1 X149.963 Y212.152 E34.59562
G1 X149.364 Y212.667 E34.69042
G1 X148.716 Y213.118 E34.78516
G1 X148.025 Y213.502 E34.88002
G1 X147.3 Y213.814 E34.97474
G1 X146.547 Y214.051 E35.06947
G1 X145.773 Y214.21 E35.16429
G1 X144.988 Y214.291 E35.25899
G1 X144.586 Y214.301 E35.30724
G1 X78.413 Y214.298 E43.248
G1 X77.624 Y214.258 E43.3428
G1 X76.843 Y214.138 E43.43762
G1 X76.079 Y213.941 E43.5323
G1 X75.338 Y213.666 E43.62715
G1 X74.629 Y213.319 E43.72187
G1 X73.959 Y212.901 E43.81663
G1 X73.334 Y212.418 E43.91142
G1 X72.762 Y211.874 E44.00615
G1 X72.247 Y211.275 E44.10094
G1 X71.796 Y210.627 E44.19568
G1 X71.412 Y209.937 E44.29044
G1 X71.1 Y209.212 E44.38515
G1 X70.863 Y208.458 E44.48
G1 X70.704 Y207.685 E44.5747
G1 X70.623 Y206.899 E44.66952
G1 X70.613 Y206.498 E44.71765
G1 X70.613 Y16.499 E67.51753
G1 X70.653 Y15.71 E67.61233
G1 X70.772 Y14.93 E67.70702
G0 F3600 X71.172 Y14.971
G1 F1800 X71.37 Y14.228 E67.79929
G1 X71.644 Y13.509 E67.89162
G1 X71.991 Y12.823 E67.98387
G1 X72.407 Y12.176 E68.07618
G1 X72.888 Y11.576 E68.16846
G1 X73.429 Y11.029 E68.26078
G1 X74.024 Y10.541 E68.35312
G1 X74.666 Y10.118 E68.44538
G1 X75.349 Y9.763 E68.53775
G1 X76.064 Y9.482 E68.62994
G1 X76.806 Y9.276 E68.72235
G1 X77.564 Y9.148 E68.8146
G1 X78.413 Y9.099 E68.91664
G1 X138.336 Y9.099 E76.1074
G1 X139.104 Y9.139 E76.19969
G1 X139.864 Y9.258 E76.292
G1 X140.607 Y9.456 E76.38427
G1 X141.326 Y9.73 E76.47661
G1 X142.012 Y10.077 E76.56886
G1 X142.659 Y10.493 E76.66116
G1 X143.259 Y10.974 E76.75344
G1 X143.806 Y11.515 E76.84576
G1 X144.294 Y12.11 E76.93811
G1 X144.717 Y12.752 E77.03036
G1 X145.072 Y13.435 E77.12273
G1 X145.353 Y14.15 E77.21492
G1 X145.559 Y14.892 E77.30733
G1 X145.687 Y15.65 E77.39958
G1 X145.736 Y16.499 E77.50163
G1 X145.736 Y25.262 E78.55319
G1 X146.114 Y25.321 E78.5991
G1 X146.857 Y25.519 E78.69137
G1 X147.576 Y25.793 E78.7837
G1 X148.262 Y26.14 E78.87595
G1 X148.909 Y26.556 E78.96826
G1 X149.509 Y27.037 E79.06054
G1 X150.056 Y27.578 E79.15286
G1 X150.544 Y28.173 E79.2452
G1 X150.967 Y28.815 E79.33746
G1 X151.322 Y29.498 E79.42983
G1 X151.603 Y30.213 E79.52202
G1 X151.809 Y30.955 E79.61443
G1 X151.937 Y31.713 E79.70667
G1 X151.986 Y32.562 E79.80872
G1 X151.986 Y73.562 E84.72872
G1 X151.946 Y74.33 E84.82101
G1 X151.827 Y75.09 E84.91332
G1 X151.629 Y75.833 E85.00559
G1 X151.355 Y76.552 E85.09792
G1 X151.008 Y77.238 E85.19018
G1 X150.592 Y77.885 E85.28248
G1 X150.111 Y78.485 E85.37476
G1 X149.57 Y79.032 E85.46708
G1 X148.975 Y79.52 E85.55942
G1 X148.333 Y79.943 E85.65168
G1 X147.65 Y80.298 E85.74405
G1 X146.935 Y80.579 E85.83624
G1 X146.193 Y80.785 E85.92865
G1 X145.736 Y80.862 E85.98426
G1 X145.736 Y184.201 E98.38494
G1 X146.115 Y184.261 E98.43099
G1 X146.858 Y184.459 E98.52326
G1 X147.577 Y184.732 E98.61555
G1 X148.264 Y185.079 E98.70791
G1 X148.91 Y185.496 E98.80018
G1 X149.51 Y185.977 E98.89246
G1 X150.057 Y186.518 E98.98478
G1 X150.545 Y187.113 E99.07712
G1 X150.968 Y187.755 E99.16938
G1 X151.322 Y188.438 E99.2617
G1 X151.604 Y189.154 E99.35404
G1 X151.81 Y189.895 E99.44633
G1 X151.937 Y190.653 E99.53856
G1 X151.986 Y191.501 E99.64049
G1 X151.986 Y206.501 E101.44049
G1 X151.946 Y207.269 E101.53277
G1 X151.827 Y208.029 E101.62509
G1 X151.629 Y208.772 E101.71736
G1 X151.355 Y209.491 E101.80969
G1 X151.008 Y210.177 E101.90194
G1 X150.592 Y210.824 E101.99425
G1 X150.111 Y211.424 E102.08653
G1 X149.57 Y211.971 E102.17885
G1 X148.975 Y212.459 E102.27119
G1 X148.333 Y212.882 E102.36345
G1 X147.65 Y213.237 E102.45582
G1 X146.935 Y213.518 E102.54801
G1 X146.193 Y213.724 E102.64042
G1 X145.435 Y213.852 E102.73266
G1 X144.586 Y213.901 E102.83471
G1 X78.413 Y213.898 E110.77547
G1 X77.645 Y213.858 E110.86776
G1 X76.885 Y213.738 E110.96009
G1 X76.141 Y213.541 E111.05244
G1 X75.423 Y213.267 E111.14466
G1 X74.736 Y212.92 E111.23702
G1 X74.089 Y212.504 E111.32933
G1 X73.489 Y212.022 E111.42168
G1 X72.943 Y211.481 E111.51392
G1 X72.455 Y210.887 E111.60617
G1 X72.032 Y210.245 E111.69843
G1 X71.677 Y209.562 E111.7908
G1 X71.395 Y208.846 E111.88314
G1 X71.19 Y208.105 E111.9754
G1 X71.062 Y207.347 E112.06765
G1 X71.013 Y206.498 E112.1697
G1 X71.013 Y16.499 E134.96958
G1 X71.053 Y15.731 E135.06186
G1 X71.172 Y14.971 E135.15418
G0 F3600 X71.572 Y15.014
G1 F1800 X71.77 Y14.292 E135.24401
G1 X72.043 Y13.596 E135.33373
G1 X72.39 Y12.933 E135.42353
G1 X72.805 Y12.31 E135.51336
G1 X73.284 Y11.736 E135.60307
G1 X73.821 Y11.215 E135.69285
G1 X74.411 Y10.756 E135.78255
G1 X75.047 Y10.361 E135.8724
G1 X75.721 Y10.037 E135.96214
G1 X76.426 Y9.787 E136.0519
G1 X77.154 Y9.613 E136.14172
G1 X77.896 Y9.518 E136.23149
G1 X78.413 Y9.499 E136.29357
G1 X138.336 Y9.499 E143.48433
G1 X139.083 Y9.539 E143.5741
G1 X139.821 Y9.658 E143.6638
G1 X140.543 Y9.856 E143.75364
G1 X141.239 Y10.129 E143.84335
G1 X141.902 Y10.476 E143.93315
G1 X142.525 Y10.891 E144.02298
G1 X143.099 Y11.37 E144.11269
G1 X143.62 Y11.907 E144.20248
G1 X144.079 Y12.497 E144.29218
G1 X144.474 Y13.133 E144.38202
G1 X144.798 Y13.807 E144.47176
G1 X145.048 Y14.512 E144.56152
G1 X145.222 Y15.24 E144.65134
G1 X145.317 Y15.982 E144.74111
G1 X145.336 Y16.499 E144.80319
G1 X145.336 Y25.602 E145.89555
G1 X146.071 Y25.721 E145.9849
G1 X146.793 Y25.919 E146.07474
G1 X147.489 Y26.192 E146.16445
G1 X148.152 Y26.539 E146.25425
G1 X148.775 Y26.954 E146.34408
G1 X149.349 Y27.433 E146.43379
G1 X149.87 Y27.97 E146.52358
G1 X150.329 Y28.56 E146.61328
G1 X150.724 Y29.196 E146.70312
G1 X151.048 Y29.87 E146.79286
G1 X151.298 Y30.575 E146.88262
G1 X151.472 Y31.303 E146.97244
G1 X151.567 Y32.045 E147.06221
G1 X151.586 Y32.562 E147.12429
G1 X151.586 Y73.562 E152.04429
G1 X151.546 Y74.309 E152.13406
G1 X151.427 Y75.047 E152.22376
G1 X151.229 Y75.769 E152.3136
G1 X150.956 Y76.465 E152.40332
G1 X150.609 Y77.128 E152.49312
G1 X150.194 Y77.751 E152.58294
G1 X149.715 Y78.325 E152.67266
G1 X149.178 Y78.846 E152.76244
G1 X148.588 Y79.305 E152.85214
G1 X147.952 Y79.7 E152.94199
G1 X147.278 Y80.024 E153.03173
G1 X146.573 Y80.274 E153.12149
G1 X145.845 Y80.448 E153.21131
G1 X145.336 Y80.513 E153.27288
G1 X145.336 Y184.541 E165.75624
G1 X146.073 Y184.661 E165.84585
G1 X146.794 Y184.858 E165.93554
G1 X147.49 Y185.132 E166.0253
G1 X148.153 Y185.478 E166.11504
G1 X148.776 Y185.893 E166.20487
G1 X149.35 Y186.372 E166.29458
G1 X149.87 Y186.91 E166.38437
G1 X150.33 Y187.5 E166.47415
G1 X150.724 Y188.136 E166.56392
G1 X151.048 Y188.81 E166.65366
G1 X151.298 Y189.515 E166.74343
G1 X151.472 Y190.243 E166.83325
G1 X151.567 Y190.985 E166.92301
G1 X151.586 Y191.501 E166.98497
G1 X151.586 Y206.501 E168.78497
G1 X151.546 Y207.248 E168.87474
G1 X151.427 Y207.986 E168.96445
G1 X151.229 Y208.708 E169.05429
G1 X150.956 Y209.404 E169.144
G1 X150.609 Y210.067 E169.2338
G1 X150.194 Y210.69 E169.32363
G1 X149.715 Y211.264 E169.41334
G1 X149.178 Y211.785 E169.50312
G1 X148.588 Y212.244 E169.59283
G1 X147.952 Y212.639 E169.68267
G1 X147.278 Y212.963 E169.77241
G1 X146.573 Y213.213 E169.86217
G1 X145.845 Y213.387 E169.95199
G1 X145.103 Y213.482 E170.04176
G1 X144.586 Y213.501 E170.10384
G1 X78.413 Y213.498 E178.0446
G1 X77.666 Y213.458 E178.13437
G1 X76.927 Y213.339 E178.22419
G1 X76.206 Y213.141 E178.31391
G1 X75.509 Y212.867 E178.40378
G1 X74.846 Y212.521 E178.49353
G1 X74.224 Y212.106 E178.58325
G1 X73.649 Y211.627 E178.67306
G1 X73.129 Y211.09 E178.76276
G1 X72.669 Y210.499 E178.85263
G1 X72.275 Y209.864 E178.94231
G1 X71.951 Y209.189 E179.03215
G1 X71.701 Y208.485 E179.1218
G1 X71.527 Y207.757 E179.21162
G1 X71.432 Y207.015 E179.30139
G1 X71.413 Y206.498 E179.36347
G1 X71.413 Y16.499 E202.16335
G1 X71.453 Y15.752 E202.25312
G1 X71.572 Y15.014 E202.34283
G0 F3600 X71.972 Y15.057
G1 F1800 X72.17 Y14.358 E202.43001
G1 X72.443 Y13.685 E202.51716
G1 X72.788 Y13.046 E202.6043
G1 X73.202 Y12.449 E202.69148
G1 X73.678 Y11.901 E202.77858
G1 X74.212 Y11.408 E202.8658
G1 X74.797 Y10.978 E202.95292
G1 X75.426 Y10.614 E203.04013
G1 X76.091 Y10.321 E203.12733
G1 X76.784 Y10.103 E203.21451
G1 X77.496 Y9.963 E203.30158
G1 X78.413 Y9.899 E203.41189
G1 X138.336 Y9.899 E210.60265
G1 X139.061 Y9.939 E210.68978
G1 X139.778 Y10.058 E210.777
G1 X140.477 Y10.256 E210.86418
G1 X141.15 Y10.529 E210.95133
G1 X141.789 Y10.874 E211.03848
G1 X142.386 Y11.288 E211.12566
G1 X142.934 Y11.764 E211.21276
G1 X143.427 Y12.298 E211.29997
G1 X143.857 Y12.883 E211.3871
G1 X144.221 Y13.512 E211.4743
G1 X144.514 Y14.177 E211.56151
G1 X144.732 Y14.87 E211.64868
G1 X144.872 Y15.582 E211.73576
G1 X144.936 Y16.499 E211.84607
G1 X144.936 Y25.981 E212.98391
G1 X145.311 Y26.002 E213.02898
G1 X146.028 Y26.121 E213.1162
G1 X146.727 Y26.319 E213.20338
G1 X147.4 Y26.592 E213.29053
G1 X148.039 Y26.937 E213.37767
G1 X148.636 Y27.351 E213.46485
G1 X149.184 Y27.827 E213.55195
G1 X149.677 Y28.361 E213.63917
G1 X150.107 Y28.946 E213.72629
G1 X150.471 Y29.575 E213.8135
G1 X150.764 Y30.24 E213.9007
G1 X150.982 Y30.933 E213.98788
G1 X151.122 Y31.645 E214.07495
G1 X151.186 Y32.562 E214.18526
G1 X151.186 Y73.562 E219.10526
G1 X151.146 Y74.287 E219.19239
G1 X151.027 Y75.004 E219.27961
G1 X150.829 Y75.703 E219.36679
G1 X150.556 Y76.376 E219.45394
G1 X150.211 Y77.015 E219.54109
G1 X149.797 Y77.612 E219.62827
G1 X149.321 Y78.16 E219.71537
G1 X148.787 Y78.653 E219.80258
G1 X148.202 Y79.083 E219.88971
G1 X147.573 Y79.447 E219.97691
G1 X146.908 Y79.74 E220.06412
G1 X146.215 Y79.958 E220.15129
G1 X145.503 Y80.098 E220.23837
G1 X144.936 Y80.138 E220.30658
G1 X144.936 Y184.92 E232.88042
G1 X145.312 Y184.941 E232.92561
G1 X146.029 Y185.061 E233.01285
G1 X146.728 Y185.258 E233.09999
G1 X147.401 Y185.531 E233.18715
G1 X148.04 Y185.877 E233.27435
G1 X148.637 Y186.29 E233.36146
G1 X149.185 Y186.767 E233.44864
G1 X149.677 Y187.301 E233.53577
G1 X150.108 Y187.886 E233.62297
G1 X150.472 Y188.515 E233.71017
G1 X150.764 Y189.18 E233.79733
G1 X150.982 Y189.873 E233.88451
G1 X151.122 Y190.585 E233.97158
G1 X151.186 Y191.501 E234.08177
G1 X151.186 Y206.501 E235.88177
G1 X151.146 Y207.226 E235.9689
G1 X151.027 Y207.943 E236.05612
G1 X150.829 Y208.642 E236.1433
G1 X150.556 Y209.315 E236.23045
G1 X150.211 Y209.954 E236.31759
G1 X149.797 Y210.551 E236.40477
G1 X149.321 Y211.099 E236.49188
G1 X148.787 Y211.592 E236.57909
G1 X148.202 Y212.022 E236.66622
G1 X147.573 Y212.386 E236.75342
G1 X146.908 Y212.679 E236.84063
G1 X146.215 Y212.897 E236.9278
G1 X145.503 Y213.037 E237.01488
G1 X144.586 Y213.101 E237.12519
G1 X78.413 Y213.098 E245.06595
G1 X77.687 Y213.058 E245.1532
G1 X76.971 Y212.939 E245.2403
G1 X76.272 Y212.741 E245.32748
G1 X75.599 Y212.468 E245.41463
G1 X74.96 Y212.123 E245.50177
G1 X74.363 Y211.709 E245.58895
G1 X73.815 Y211.232 E245.67613
G1 X73.322 Y210.698 E245.76335
G1 X72.891 Y210.114 E245.85045
G1 X72.528 Y209.485 E245.93759
G1 X72.235 Y208.82 E246.0248
G1 X72.017 Y208.127 E246.11197
G1 X71.877 Y207.415 E246.19905
G1 X71.813 Y206.498 E246.30936
G1 X71.813 Y16.499 E269.10924
G1 X71.853 Y15.774 E269.19637
G1 X71.972 Y15.057 E269.28359
G0 F3600 X72.372 Y15.102
G1 F1800 X72.57 Y14.427 E269.368
G1 X72.842 Y13.778 E269.45244
G1 X73.187 Y13.164 E269.53696
G1 X73.598 Y12.593 E269.62138
G1 X74.072 Y12.072 E269.7059
G1 X74.602 Y11.608 E269.79043
G1 X75.181 Y11.208 E269.87488
G1 X75.802 Y10.876 E269.95938
G1 X76.456 Y10.616 E270.04384
G1 X77.136 Y10.432 E270.12837
G1 X77.832 Y10.326 E270.21285
G1 X78.413 Y10.299 E270.28265
G1 X138.336 Y10.299 E277.47341
G1 X139.039 Y10.339 E277.55791
G1 X139.733 Y10.458 E277.6424
G1 X140.408 Y10.656 E277.72681
G1 X141.057 Y10.928 E277.81126
G1 X141.671 Y11.273 E277.89577
G1 X142.242 Y11.684 E277.9802
G1 X142.763 Y12.158 E278.06472
G1 X143.227 Y12.688 E278.14925
G1 X143.627 Y13.267 E278.2337
G1 X143.959 Y13.888 E278.3182
G1 X144.219 Y14.542 E278.40265
G1 X144.403 Y15.222 E278.48719
G1 X144.509 Y15.918 E278.57167
G1 X144.536 Y16.499 E278.64147
G1 X144.536 Y26.362 E279.82503
G1 X144.586 Y26.362 E279.83103
G1 X145.289 Y26.402 E279.91552
G1 X145.983 Y26.521 E280.00002
G1 X146.658 Y26.719 E280.08443
G1 X147.307 Y26.991 E280.16887
G1 X147.921 Y27.336 E280.25339
G1 X148.492 Y27.747 E280.33781
G1 X149.013 Y28.221 E280.42233
G1 X149.477 Y28.751 E280.50686
G1 X149.877 Y29.33 E280.59131
G1 X150.209 Y29.951 E280.67581
G1 X150.469 Y30.605 E280.76027
G1 X150.653 Y31.285 E280.8448
G1 X150.759 Y31.981 E280.92929
G1 X150.786 Y32.562 E280.99908
G1 X150.786 Y73.562 E285.91908
G1 X150.746 Y74.265 E286.00358
G1 X150.627 Y74.959 E286.08807
G1 X150.429 Y75.634 E286.17249
G1 X150.157 Y76.283 E286.25693
G1 X149.812 Y76.897 E286.34144
G1 X149.401 Y77.468 E286.42587
G1 X148.927 Y77.989 E286.51039
G1 X148.397 Y78.453 E286.59492
G1 X147.818 Y78.853 E286.67937
G1 X147.197 Y79.185 E286.76387
G1 X146.543 Y79.445 E286.84832
G1 X145.863 Y79.629 E286.93286
G1 X145.167 Y79.735 E287.01734
G1 X144.586 Y79.762 E287.08714
G1 X144.536 Y79.762 E287.09314
G1 X144.536 Y185.301 E299.75782
G1 X144.587 Y185.301 E299.76394
G1 X145.29 Y185.341 E299.84843
G1 X145.984 Y185.461 E299.93295
G1 X146.659 Y185.658 E300.01733
G1 X147.308 Y185.931 E300.10182
G1 X147.922 Y186.275 E300.18627
G1 X148.493 Y186.687 E300.27077
G1 X149.014 Y187.161 E300.35529
G1 X149.477 Y187.691 E300.43974
G1 X149.878 Y188.27 E300.52426
G1 X150.21 Y188.891 E300.60876
G1 X150.469 Y189.545 E300.69317
G1 X150.653 Y190.225 E300.7777
G1 X150.759 Y190.921 E300.86219
G1 X150.786 Y191.501 E300.93186
G1 X150.786 Y206.501 E302.73186
G1 X150.746 Y207.204 E302.81636
G1 X150.627 Y207.898 E302.90085
